X: 1
T: Humours Of Ballyconnell, The
M: 4/4
L: 1/8
K: D
defe dBAF|BFAF ~E3A|defe dBAF|BFAF D3A|
defe dBAF|BFAF ~E3A|defe dBAF|BFAF D2 DE||
F/E/D AD BDAF|G/F/E BE dEBE|F/E/D AD BDAF|GBAF D2 DE|
F/E/D AD BDAF|G/F/E BE dEBE|F/E/D AD BDAF|GBAF D2 e/f/g|
~a3b afdf|gece gece|a2 af abag|fgfe defg|
~a3b afdf|gece gece|a2 af abag|fgfe d2 A/B/c||
